svg/300/sharp/notification_multiple-fill.svg

<svg xmlns="http://www.w3.org/2000/svg" width="48" height="48" viewBox="0 -960 960 960"><path d="M77.31-100.001V-652.46h45.383v507.075h544.614v45.384H77.31ZM188.078-210.77v-454.766l347.306-210.461 47.845 24.538-341.152 209.691 293.307 188.615 307.615-197.23 39.691 20.692v418.921H188.078ZM526.23-548.076 425.231-649.075l32.615-32.615 68.384 68.384 172.846-172.46 32.614 32.614-205.46 205.076Z"/></svg>

<svg xmlns="http://www.w3.org/2000/svg" width="48" height="48" viewBox="0 -960 960 960"><path d="M77.31-100v-552.46h45.38v507.07h544.62V-100h-590Zm110.77-110.77v-454.77L535.38-876l47.85 24.54-341.15 209.69 293.3 188.62L843-650.38l39.69 20.69v418.92H188.08Zm338.15-337.31-101-101 32.62-32.61 68.38 68.38 172.85-172.46 32.61 32.62-205.46 205.07Z"/></svg>
